public/resources/images/logo-white.svg

<svg width="24" height="24" viewBox="0 0 24 24" fill="none" xmlns="http://www.w3.org/2000/svg">
<path d="M15.1289 5.6391L17.7554 9.01551V14.3935L10.5254 5.6391H4.63184L7.15321 8.65467V14.6719L4.73703 17.9571L10.3587 17.961L7.73434 14.5828L7.69087 14.5827V9.29774L14.9644 17.9967H18.2708V9.01551L20.7505 5.63921V5.6391H15.1289Z" fill="white"/>
</svg>

<svg width="24" height="24" fill="none" xmlns="http://www.w3.org/2000/svg"><path d="M15.129 5.64l2.626 3.376v5.377l-7.23-8.754H4.632l2.521 3.016v6.017l-2.416 3.285 5.622.004-2.625-3.378h-.043V9.298l7.273 8.699h3.307V9.016l2.48-3.377h-5.622z" fill="#fff"/></svg>
